X:2318
T:Bunny's Hat, The
M:C|
L:1/8
C:Dave Lim
R:reel
D:Steve Finn, Andrew Dinan and John Joe Kelly: Before the Flood
Z:Devin McCabe
K:BMin
FABA cBAF|Bcde fedB|FABF A3F|EFFB A~B3|
!FABA cBAF|Bcde fedB|FABF ABce|faec dBBA:|
!FA (3Bcd efaf|efaf edcA|FA (3Bcd efaf|edcd AB2A|
!FA (3Bcd e~f3|aefa bafe|d~B3 cAce|faec dBcA:|


